src/ui/truck.svg

<?xml version="1.0" encoding="UTF-8"?><svg xmlns="http://www.w3.org/2000/svg" viewBox="0 0 32 32"><defs><style>.uuid-07dd443e-0ddc-4701-970e-91a78dca5612{fill:none;}.uuid-07dd443e-0ddc-4701-970e-91a78dca5612,.uuid-f0da6db8-2672-4899-9923-f3e0d4abd7d0{stroke-width:0px;}.uuid-f0da6db8-2672-4899-9923-f3e0d4abd7d0{fill:#151515;}</style></defs><g id="uuid-a611e60a-0fc5-4843-a8e2-34cd59198c93"><rect class="uuid-07dd443e-0ddc-4701-970e-91a78dca5612" x="0" width="32" height="32"/></g><g id="uuid-0d334005-9af2-4b33-aa5f-e0f4a47bec01"><path class="uuid-f0da6db8-2672-4899-9923-f3e0d4abd7d0" d="M30.9921,15.9607c-.0043-.1116-.024-.2222-.0662-.3285-.0035-.0089-.0045-.0185-.0082-.0272-.0016-.0038-.0018-.0079-.0035-.0117l-3.5596-8c-.1611-.3608-.5186-.5933-.9141-.5933h-5.4404v-1.5c0-.8271-.6729-1.5-1.5-1.5H2.5c-.8271,0-1.5.6729-1.5,1.5v16c0,.8271.6729,1.5,1.5,1.5h.642c-.0836.3215-.142.6527-.142,1,0,2.2056,1.7939,4,4,4s4-1.7944,4-4c0-.3473-.0585-.6785-.142-1h10.2841c-.0836.3215-.142.6527-.142,1,0,2.2056,1.7939,4,4,4s4-1.7944,4-4c0-.3473-.0585-.6785-.142-1h.642c.8271,0,1.5-.6729,1.5-1.5v-5.5c0-.0139-.0074-.0255-.0079-.0393ZM7,26c-1.1025,0-2-.897-2-2s.8975-2,2-2,2,.897,2,2-.8975,2-2,2ZM19,8v13h-9.3822c-.7034-.6146-1.6123-1-2.6178-1s-1.9144.3854-2.6178,1h-1.3822V6h16v2ZM21,9h4.791l2.6699,6h-7.4609v-6ZM25,26c-1.1025,0-2-.897-2-2s.8975-2,2-2,2,.897,2,2-.8975,2-2,2ZM29,21h-1.3822c-.7034-.6146-1.6123-1-2.6178-1s-1.9144.3854-2.6178,1h-1.3822v-4h8v4Z"/></g></svg>

<svg xmlns="http://www.w3.org/2000/svg" viewBox="0 0 32 32">
  <path d="M0 0h32v32H0z" fill="none"/>
  <path d="M30.992 15.96a.987.987 0 0 0-.066-.328c-.004-.009-.005-.018-.008-.027l-.004-.012-3.56-8A1 1 0 0 0 26.442 7H21V5.5c0-.827-.674-1.5-1.5-1.5h-17C1.673 4 1 4.673 1 5.5v16c0 .827.673 1.5 1.5 1.5h.642A3.952 3.952 0 0 0 3 24c0 2.206 1.794 4 4 4s4-1.794 4-4c0-.347-.059-.678-.142-1h10.284A3.952 3.952 0 0 0 21 24c0 2.206 1.794 4 4 4s4-1.794 4-4c0-.347-.058-.678-.142-1h.642c.827 0 1.5-.673 1.5-1.5V16c0-.014-.007-.025-.008-.04ZM7 26c-1.103 0-2-.897-2-2s.897-2 2-2 2 .897 2 2-.897 2-2 2ZM19 8v13H9.618c-.704-.615-1.612-1-2.618-1s-1.914.385-2.618 1H3V6h16v2Zm2 1h4.791l2.67 6H21V9Zm4 17c-1.103 0-2-.897-2-2s.897-2 2-2 2 .897 2 2-.897 2-2 2Zm4-5h-1.382c-.704-.615-1.612-1-2.618-1s-1.914.385-2.618 1H21v-4h8v4Z" fill="#151515"/>
</svg>
